build/assets/img/window-close.svg

<svg xmlns="http://www.w3.org/2000/svg" viewBox="0 0 512 512">
    <path d="M464 32H48C21.5 32 0 53.5 0 80v352c0 26.5 21.5 48 48 48h416c26.5 0 48-21.5 48-48V80c0-26.5-21.5-48-48-48zm0 394c0 3.3-2.7 6-6 6H54c-3.3 0-6-2.7-6-6V86c0-3.3 2.7-6 6-6h404c3.3 0 6 2.7 6 6v340zM356.5 194.6L295.1 256l61.4 61.4c4.6 4.6 4.6 12.1 0 16.8l-22.3 22.3c-4.6 4.6-12.1 4.6-16.8 0L256 295.1l-61.4 61.4c-4.6 4.6-12.1 4.6-16.8 0l-22.3-22.3c-4.6-4.6-4.6-12.1 0-16.8l61.4-61.4-61.4-61.4c-4.6-4.6-4.6-12.1 0-16.8l22.3-22.3c4.6-4.6 12.1-4.6 16.8 0l61.4 61.4 61.4-61.4c4.6-4.6 12.1-4.6 16.8 0l22.3 22.3c4.7 4.6 4.7 12.1 0 16.8z"/>
</svg>

<?xml version="1.0" encoding="utf-8"?>
<svg viewBox="0 0 512 512" xmlns="http://www.w3.org/2000/svg">
  <path d="M 356.5 194.6 L 295.1 256 L 356.5 317.4 C 361.1 322 361.1 329.5 356.5 334.2 L 334.2 356.5 C 329.6 361.1 322.1 361.1 317.4 356.5 L 256 295.1 L 194.6 356.5 C 190 361.1 182.5 361.1 177.8 356.5 L 155.5 334.2 C 150.9 329.6 150.9 322.1 155.5 317.4 L 216.9 256 L 155.5 194.6 C 150.9 190 150.9 182.5 155.5 177.8 L 177.8 155.5 C 182.4 150.9 189.9 150.9 194.6 155.5 L 256 216.9 L 317.4 155.5 C 322 150.9 329.5 150.9 334.2 155.5 L 356.5 177.8 C 361.2 182.4 361.2 189.9 356.5 194.6 Z"/>
</svg>
